X:1
T:Title
%%score { ( 1 3 5 ) | ( 2 4 6 ) }
L:1/8
M:3/4
K:Eb
V:1 treble nm="Grand Piano"
V:3 treble 
V:5 treble 
V:2 bass 
V:4 bass 
V:6 bass 
V:1
 z2 z2[Q:1/4=100] B,2 | z2 B,2 G2 | B4 z2 | [CAc]2 [DAd]2 [CAc]2 | [B,GB]2 [B,EG]2 [FB]2 | e4 z2 | %6
 c4 z2 | [Ec]2 [B,EB]2 [B,EG]2 | [B,EG]2 [B,DF]2 .[B,DF]2 | [CFA]2 [CFA]2 [CFA]2 | c4 z2 | %11
 [_G=Ad]2 [=A,DA]2 [DGc]2 | B4 z2 | c2 [CGc]2 [G=Bd]2 | [Gcf]2 [Gce]2 [EGc]2 | %15
 z2 c4[K:bass][K:treble] |[M:2/4] [DFB]4 |[M:1/4] B2 |[M:3/4] [GBe]4 [B,EB]2 | %19
 [EG]4 (3[E-G][EA][B,EB] | [B,EB]2 [EAc]2 [B,EB]2 | B2 z2 z2 | [=Af]4 [FAe]2 | [FBd]4 (3[DFB]cd | %24
 [EBe]2 [EGc]2 [B,EB]>[EG] | [EG]2 z2 B2 | c2 B2 [EGc]2 | [FAc]4 [B,EB]>[DAc] | c2 B2 [Gc]2 | %29
 [_G=Ac]4 [GAc]2 | B2- [DAB]2 (3Bcd | [EGe]2 [DGd]2 [CAc]2 | [B,EB]2 [A,CA]2 [G,CG]2 | E2 z2 z2 | %34
[M:2/4][K:bass] [E,G,B,E]4 |] %35
V:2
 z6 | z2 [B,,E,G,]2 [E,B,E]2 | z2 [E,A,B,]2 z[K:treble] B | z2 A,2 [A,,A,]2 | z2 E,2 [D,,D,]2 | %5
 z2 C,2 G,,2 | z2 [A,CE]2 z[K:treble] c | z2 G,2 E,->[G,,E,] | B,,2 B,,,2 z G | %9
 [F,,F,]2 [A,,A,]2 [F,,F,]2 | z2 E,2 z[K:treble] c | [D,,D,]2 [_G,,_G,]2 [D,,D,]2 | %12
 z2 [G,D]2 [F,,F,]2 | z2 E,2 [D,,D,]2 | z2 C,2 [E,,E,]2 | z2[K:treble] [EF]3 [DF] | %16
[M:2/4][K:bass] [B,,,B,,]4 |[M:1/4] B,,2 |[M:3/4] [E,,E,]4 [G,,G,]2 | %19
 [C,B,]4 (3[B,,B,][C,C][G,,G,] | [G,,G,]2 [A,,A,]2 [G,,G,]2 | [F,,F,]4 [F,,F,]2 | %22
 [F,CF]4 [F,,F,]2 | [A,,A,]4 (3z[K:treble] [EF][FB] | [G,,G,]2 [E,,E,]2 [G,,G,]>[B,,B,] | %25
 [B,,,B,,]4 [B,,B,]>[A,,A,] | [A,,A,]4 [G,,G,]2 | [F,,F,]4 [G,,G,]>[F,,F,] | [F,,F,]4 [E,,E,]2 | %29
 [D,,D,]4 [D,,D,]2 | [E,,E,]2 [F,,F,]2 [D,,D,]2 | [C,,C,]2 [B,,,B,,]2 [A,,,A,,]2 | %32
 [G,,,G,,]2 [A,,,A,,]2 [=A,,,=A,,]2 | z2 z2 D2 |[M:2/4] E,,4 |] %35
V:3
 x6 | E4 z2 | z2 E2 .[EGB]2 | x6 | x6 | z2 [Gc]2 [FBd]2 | z2 A2 .[EAc]2 | x6 | x6 | x6 | %10
 z2 [CG]2 .[GB]2 | x6 | z2 G2 [DG=B]2 | x6 | x6 | [DFB]2 z2[K:bass] z[K:treble] B |[M:2/4] x4 | %17
[M:1/4] x2 |[M:3/4] x6 | x6 | x6 | [CF]2- [CFA]2 [FAc]2 | x6 | x6 | x6 | B,2- [B,DF]2 [DF]->[DFc] | %26
 [DF]4 z2 | x6 | [DA]4 z2 | x6 | G2 z2 [FA]2 | x6 | x6 | [A,F]2- [A,-DF-][A,-CF] [A,F]2 | %34
[M:2/4][K:bass] x4 |] %35
V:4
 x6 | E,,4 z2 | G,,4 [E,,E,]2[K:treble] | A,,4 z2 | E,,4 z2 | C,,4 z2 | A,,4 [A,,A,]2[K:treble] | %7
 G,,4 E,,2 | z2 z2 B,,2 | x6 | E,,4 E,2[K:treble] | x6 | G,,4 z2 | E,,4 z2 | C,,4 z2 | %15
 [F,,F,]4[K:treble] z2 |[M:2/4][K:bass] x4 |[M:1/4] x2 |[M:3/4] x6 | x6 | x6 | x6 | x6 | %23
 z2 z2 A,2[K:treble] | x6 | x6 | x6 | x6 | x6 | x6 | x6 | x6 | x6 | [B,,,B,,]6 |[M:2/4] x4 |] %35
V:5
 x6 | x6 | x6 | x6 | x6 | x6 | x6 | x6 | x6 | x6 | x6 | x6 | x6 | x6 | x6 | %15
 z2 z2[K:bass] F,,2[K:treble] |[M:2/4] x4 |[M:1/4] x2 |[M:3/4] x6 | x6 | x6 | x6 | x6 | x6 | x6 | %25
 x6 | x6 | x6 | x6 | x6 | x6 | x6 | x6 | x6 |[M:2/4][K:bass] x4 |] %35
V:6
 x6 | x6 | x5[K:treble] x | x6 | x6 | x6 | x5[K:treble] x | x6 | x6 | x6 | x5[K:treble] x | x6 | %12
 x6 | x6 | x6 | x2[K:treble] x4 |[M:2/4][K:bass] x4 |[M:1/4] x2 |[M:3/4] x6 | x6 | x6 | x6 | x6 | %23
 z2 z2 A,,2[K:treble] | x6 | x6 | x6 | x6 | x6 | x6 | x6 | x6 | x6 | x6 |[M:2/4] x4 |] %35

